X:1
T:MESSIAH
T:1/5
T:George Frideric Handel (1685-1759)
T:I 1  Sinfonia
T:MESSIAH
T:PART  I
T:Orfeón Gregorio Gea
T:Orfeón Gregorio Gea
T:Orfeón Gregorio Gea
T:Orfeón Gregorio Gea
T:Orfeón Gregorio Gea
T:Orfeón Gregorio Gea
T:Orfeón Gregorio Gea
T:Orfeón Gregorio Gea
T:Orfeón Gregorio Gea
T:Orfeón Gregorio Gea
C:George Frideric Handel
C:(1685-1759)
Z:Orfeón Gregorio Gea
%%score [ 1 2 3 4 ]
L:1/8
Q:1/4=68
M:4/4
K:G
V:1 treble nm="Violino I" snm="Vln. I"
V:2 treble nm="Violino II" snm="Vln. II"
V:3 alto nm="Viola" snm="Vla."
V:4 bass transpose=-12 nm="Bassi" snm="Bs."
V:1
"^Grave" E3 c B3 A | ^d3 ^c/B/ g3 g | g3 f f3 e | ^d3 f g3 b | e3 A G3 F | F3 A d3 d | d3 e c3 B | %7
 B4- B>B B>B | e3 e f3 e/f/ | g3 G F2 B2 | e3 B A3 B |1 B4- B>B, ^C>^D :|2 B8 || %13
[Q:1/4=140]"^Allegro moderato" z2 b2 g2 fe | f2 B2 f2 T^g2 | a2 e2 a4- | abga fbab | g2 e2 b4- | %18
 b2 ag a2 gf | g4- gfge | f2 b4 ^a2 | bB^c^d eE e2- | e2 dc d2 cB | c3 B AGFE | ^d2 e4 d2 | %25
 e2 B2 z4 | z8 | z4 z GAB | cdBc Adcd | B2 G2 z4 | z8 | z2 d'2 b2 ag | a2 d2 z4 | z2 e2 c2 BA | %34
 B2 E2 z4 | z2 f2 d2 ^cB | ^c2 F2 c2 ^d2 | e2 B2 e4- | efde ^cfef | ^dgfg dgfg | eaga eaga | %41
 fbab fbab | gc'bc' gc'bc' | ad'c'd' ad'c'd' | b2 c'b agfe | d2 ed cBAG | F4 A4 | z2 d2 B2 AG | %48
 A2 D2 z4 | z2 d'2 b2 ag | a2 d2 g4- | g2 =fe f2 ed | e3 d efga | f2 g4 f2 | g4 z cde | %55
 =fgef dgfg | eEF^G A4- | A4 ^G4 | Aef^g a4- | a4 ^g4 | aede cede | Adcd Fdcd | Bdcd Bdcd | %63
 GcBc GcBc | AcBc AcBc | FBAB ^DBAB | GBAB Eede | ^cfef cfef | ^dB^cd efga | b2 f2 ^d2 ^cB | %70
 g4 e4- | e2 e2 ^d2 ^cB | g2 G2 E4- | E2 ^D2 B4 | z2 f2 ^d2 ^cB | g2 G2 g4- | g2 fe a4- | %77
 a2 gf b4 | z2 b2 g2 fe | c'2 c2 c'4- | c'2 b4 a2 | b2 f2 g2 e2- | e4 ^d4 | e2 B2 c4- | c4 B4- | %85
 BcBc Afef | ^d2 b2 g2 fe | f2 B2 f2 ^g2 | a2 e2 a4- | abga fbab | e4- eede | cede ^Gede | %92
 Aede Bede | cdcB AGFE | ^d4 z2 B2 | e3 d/c/ B2 A2 | G3 A F3 E | E8 |] %98
V:2
 B,3 A G3 F | F3 E B3 B | ^c3 c c3 ^A | F3 ^D B,3 =D | E4 E2 ^C2 | A,3 F F3 F | B3 B A2 A2 | %7
 A>A G>F G2 F2 | E2 c2 c3 B/A/ | B3 B, B,3 F | G3 G E3 ^D |1 ^D4 z4 :|2 ^D8 || z8 | z8 | z8 | z8 | %17
 z2 e2 d2 ^cB | ^c2 F2 c2 ^d2 | e2 B2 e4- | efde ^cfef | ^d2 F2 B2 AG | A2 F4 E2 | E2 ^G2 AB c2 | %24
 B3 c A2 F2 | B2 G2- GEFG | ABGA FBAB | G2 EF G4- | G4 F4 | G2 d2 g4- | g4 f4 | g4 G4 | F4 d4- | %33
 d2 c2 E2 A2 | z4 e4 | ^C2 D2 z4 | z2 F2 F2 F2 | B3 A GFED | ^C2 B4 ^A2 | B2 ^d2 z ddd | %40
 e2 E2 z ede | A2 F2 z fef | g2 e2 z ede | Afef Afef | d2 ed cBAc | D2 G2 A4 | z2 A2 F2 ED | %47
 B2 B,2 z2 G2 | F2 a2 f2 ed | b2 B2 z2 G2 | F4 d2 cB | c2 A2 c2 G2 | G2 G2- GABc | A2 d2 c2 A2 | %54
 DGAB c4- | c4 B4 | c2 z2 z ABc | decd Bede | c3 B Aedc | B6 B2 | e2 A2 E2 A2 | A2 A2 A,2 A2 | %62
 G2 D2 D2 F2 | G4 C4 | z2 A2 A2 F2 | B,4 F4 | E2 ^D2 E2 B2 | E2 A2 ^c2 F2 | F^DEF GABc | %69
 B2 ^d2 B2 F2 | z2 b2 g2 fe | f2 B2 z4 | z2 B2 G2 FE | F4 E4 | A6 A2 | G2 ^D2 B2 AG | e6 E2 | %77
 F6 ED | G4 B2 e2- | e2 c2 A2 e2 | f4 e4 | ^d4 BGAB | c2 B2 A2 F2 | BGFG EAGA | FAGA DGFG | %85
 E4- EAGA | B4 z4 | z2 B2 B2 B2 | e3 d cBAG | F2 e4 ^d2 | eA^GA B2 B2 | EcBc D2 ^G2 | AcBc E2 B2 | %93
 E2 E2 A2 c2 | F4 z2 ^D2 | B4 E2 E2 | E4 ^D4 | E8 |] %98
V:3
 G,3 A, B,3 B, | B,3 B B3 G | E3 F F3 ^c | B3 B D3 G | G4 A,2 E2 | D4 D3 D | E4 E2 F2 | %7
 F>F E>^D E2 B,2 | G2 A2 A,2 C2 | E3 E F3 B, | B,2 A,G, A,3 F |1 F4 z4 :|2 F8 || z8 | z8 | z8 | %16
 z8 | z8 | z8 | z8 | z8 | z2 B2 B,2 B2 | A2 B2 A2 E2 | E3 D CB, A,2 | F2 E2 F3 B, | G,2 E,2 E4- | %26
 E4 ^D4 | E2 GF G4- | G4 F4 | G2 BA BB,CD | EFDE C2 A2 | D2 B2 d2 G2 | d4 A2 GF | E4 A,4 | z4 B4 | %35
 ^A2 B2 z4 | z2 E2 ^C2 B,^A, | B,2 B4 E2 | F2 F4 F2 | F2 B,2 z BBB | E4 z ^cBc | F2 B,2 z ^D^CD | %42
 B,2 E2 z2 G2 | d2 A2 d2 D2 | G4 E2 F2 | G2 G2 C2 E2 | A,4 D4 | z2 G2 D2 D2 | D2 F2 A2 GF | G4 D4 | %50
 z2 A2 G2 D2 | C2 D2 C2 D2 | C2 B,2 C4 | D2 D2 A2 d2 | d2 D2 G2 c2 | A2 G2 G2 G2 | C2 B,2 E2 E2 | %57
 D2 E2 E2 E2 | A2 E2 E2 A2 | B2 E2 D2 B2 | A2 E2 A2 E2 | F2 D2 D2 D2 | D2 G2 G2 D2 | B,2 E2 E4 | %64
 z2 D2 D2 F2 | F6 ^D2 | B,2 F2 B,2 E2 | E2 F2 F2 ^A2 | F2 B,2 B,2 E2 | F2 B2 F2 ^D2 | B4 B,4 | %71
 B4 F2 ^D2 | B,4 B,4- | B,2 B,2 B,2 A,G, | F,4 B,4 | E2 ^D2 E4- | E2 G2 A4- | A2 A2 B4- | %78
 B2 G2 E2 G2 | A2 E2 E2 A2 | A2 B2 c2 E2 | F4 E4 | F2 G2 A2 B2 | B,2 E2- ECB,C | A,2 D2- DB,A,B, | %85
 G,2 G2 A3 A | F4 z4 | z2 G2 F2 E2 | E2 A2 E2 F2 | B,2 B,2 F2 F2 | A2 E2 E2 E2 | A4 D4 | E4 E4 | %93
 A2 A2 E2 E2 | B4 z2 F2 | E4 E2 C2 | B,6 A,2 | G,8 |] %98
V:4
 E,4 z4 | B,,3 G, F,3 E, | ^A,3 A, A,3 F, | B,3 B,, B,,3 G,, | C,4 ^C,2 A,,2 | D,4 B,,3 B, | %6
 ^G,4 A,2 F,2 | ^D,3 B,, E,2 =D,2 | C,2 A,,2 A,3 G,/F,/ | E,3 E, D,3 D, | C,3 C, C,3 B,, |1 %11
 B,,3 A, G,2 F,2 :|2 B,,8 || z8 | z8 | z8 | z8 | z8 | z8 | z8 | z8 | z2 B,2 G,2 F,E, | %22
 F,2 B,,2 F,2 ^G,2 | A,2 E,2 A,4- | A,B,G,A, F,B,A,B, | G,2 E,2 E4- | E4 ^D4 | E4 x4 | z8 | %29
 z4 z G,A,B, | CDB,C A,DCD | B,2 G,2 z4 | z2 G,2 F,2 E,D, | E,2 A,,2 z4 | z2 A,2 G,2 F,E, | %35
 F,2 B,,2 z4 | z2 B,2 A,2 G,F, | G,3 F, E,D,^C,B,, | ^A,,2 B,,2 F,2 F,,2 | B,,2 B,4 B,,2 | %40
 C,4 ^C,4 | D,4 ^D,4 | E,4 z2 E,2 | F,4 z2 F,2 | G,4 A,4 | B,2 CB, A,G,F,E, | D,8- | D,8- | D,8- | %49
 D,8- | D,2 D2 B,2 A,G, | A,2 D,2 A,2 B,2 | C2 G,2 C4- | CDB,C A,DCD | B,2 G,2 E,2 D,C, | %55
 D,2 G,,2 z4 | z2 E,2 C,2 B,,A,, | B,,2 E,,2 z4 | z2 E2 C2 B,A, | DECD B,EDE | C2 C,2 A,,2 C,2 | %61
 F,,2 F,2 D,2 F,2 | G,2 G,,2 G,2 F,2 | E,4 E,,4 | F,,4 F,4 | ^D,4 B,,4 | E,2 F,2 G,2 ^G,2 | %67
 A,4 ^A,4 | B,2 A,2 G,2 F,E, | ^D,2 B,,2 B,4 | B,,8- | B,,8- | B,,8- | B,,2 B,2 G,2 F,E, | %74
 F,2 B,,2 B,4- | B,2 B,2 G,2 F,E, | C6 B,A, | D6 CB, | E4 z4 | z2 E2 C2 B,A, | D4 C4 | %81
 B,4 z E,F,G, | A,B,G,A, F,B,A,B, | G,2 E,2 A,4 | D,2 F,2 G,2 G,,2 | C,4 C4 | B,4 z4 | %87
 z2 E2 D2 CB, | C3 B, A,G,F,E, | ^D,2 E,2 B,2 B,,2 | C,2 E,2 ^G,,4 | A,,4 B,,4 | C,4 ^G,,4 | %93
 A,,4 C,4 | B,,4 z2 !plus!!2!A,,2 | G,,6 A,,2 | B,,8 | E,,8 |] %98

